app/img/icons/ic--saline.svg

<svg xmlns="http://www.w3.org/2000/svg" preserveAspectRatio="xMidYMid" width="27" height="31.969" viewBox="0 0 27 31.969"><defs><style>.cls-1{fill:#fff;fill-rule:evenodd}</style></defs><path d="M11.229 31.227c0 .414-.366.757-.819.757-.463 0-.819-.343-.819-.757 0-.01.038-1.209-.087-2.435-.279-2.812-1.185-2.831-2.439-2.848-1.098-.019-2.37-.055-3.787-.866h-.019c-.453-.289-.742-.578-.926-.884a1.546 1.546 0 0 1-.173-1.028v-.036c.067-.333.164-.577.28-.793.057-.145.105-.253.018-.406-.087-.099-.192-.234-.308-.352l-.028-.036c-.068-.089-.174-.18-.242-.27h-.009a2.41 2.41 0 0 1-.405-1.037c-.039-.316.009-.649.212-.929l-.087-.125a2.22 2.22 0 0 1-.356-1.109 1.92 1.92 0 0 1 .279-1.118l.058-.099-.251-.054c-.317-.073-.606-.181-.838-.343l-.019-.018c-.279-.216-.453-.505-.473-.847v-.135c.039-.514.598-1.199 1.205-1.966l.184-.217.028-.045c.28-.351.569-.721.8-1.073l.039-.026c.164-.271.298-.523.298-.649a3.19 3.19 0 0 0 .039-.668c0-.216-.019-.433-.048-.622a4.179 4.179 0 0 0-.096-.532c-.049-.144-.087-.288-.126-.396-.067-.234-.067-.929.144-1.768.117-.549.319-1.19.608-1.839.945-2.091 2.525-3.498 4.433-4.399C9.706.231 12.337-.102 14.93-.004c2.776.1 5.234.912 7.228 2.345 1.957 1.397 3.45 3.408 4.289 5.905.926 2.713.588 5.148-.443 7.357-1.003 2.164-2.641 4.111-4.366 5.959-.26.27-.386.433-.443.63-.077.253-.058.613.038 1.2.174 1.253.463 2.533.819 3.796.377 1.279.8 2.56 1.224 3.812.126.397-.125.83-.549.948-.424.126-.887-.1-1.012-.496-.424-1.254-.858-2.552-1.214-3.868a28.926 28.926 0 0 1-.887-3.985c-.125-.811-.125-1.316 0-1.767.125-.505.405-.847.8-1.28 1.638-1.731 3.18-3.57 4.096-5.545.887-1.901 1.166-3.975.386-6.301-.742-2.191-2.024-3.949-3.721-5.166-1.735-1.236-3.874-1.929-6.322-2.029-2.323-.09-4.684.199-6.631 1.109-1.561.74-2.872 1.903-3.643 3.634a7.923 7.923 0 0 0-.549 1.568c-.126.577-.183.938-.145 1.01.039.126.077.297.126.496.067.189.105.424.144.658.02.243.048.505.048.793.01.271 0 .568-.028.866-.039.379-.251.812-.54 1.262l-.039.054c-.25.361-.568.784-.887 1.199l-.038.028 1.099 1.286c-.318.397-1.89-.331-2.044-.132l.357.072h.029c.308.062.53.108.742.216l.049.018c.876.46.75.865.038 2.019l-.02.055c-.018.036-.414-3.364-.424-3.318l3.894 1.07c4.337 0 8.867 5.691 8.867 9.73v5.518c0 .694-.627 1.262-1.369 1.262-.732 0-1.359-.568-1.359-1.262v-5.518c0-2.66-3.142-7.564-5.985-7.564L3.21 20.381a.613.613 0 0 0 .174.198l.019.027c.106.144.25.288.376.46.617.848.404 1.317.145 1.884-.058.126-.145.279-.164.432 0 .028 0 .073.019.1.048.081.155.18.357.297 1.031.596 2.082.632 2.949.649 2.12.036 3.614.064 4.038 4.229.145 1.416.106 2.56.106 2.57z" class="cls-1"/></svg>

<svg xmlns="http://www.w3.org/2000/svg" xmlns:xlink="http://www.w3.org/1999/xlink" preserveAspectRatio="xMidYMid" width="27" height="31.969" viewBox="0 0 27 31.969">
  <defs>
    <style>
      .cls-1 {
        fill: #fff;
        fill-rule: evenodd;
      }
    </style>
  </defs>
  <path d="M11.229,31.227 C11.229,31.641 10.863,31.984 10.410,31.984 C9.947,31.984 9.591,31.641 9.591,31.227 C9.591,31.217 9.629,30.018 9.504,28.792 C9.225,25.980 8.319,25.961 7.065,25.944 C5.967,25.925 4.695,25.889 3.278,25.078 L3.269,25.078 L3.259,25.078 C2.806,24.789 2.517,24.500 2.333,24.194 C2.141,23.834 2.102,23.491 2.160,23.166 L2.160,23.166 L2.160,23.149 L2.160,23.130 C2.227,22.797 2.324,22.553 2.440,22.337 C2.497,22.192 2.545,22.084 2.458,21.931 C2.371,21.832 2.266,21.697 2.150,21.579 L2.122,21.543 C2.054,21.454 1.948,21.363 1.880,21.273 L1.871,21.273 C1.697,21.038 1.514,20.624 1.466,20.236 C1.427,19.920 1.475,19.587 1.678,19.307 L1.591,19.182 L1.591,19.182 L1.591,19.182 C1.380,18.866 1.254,18.469 1.235,18.073 C1.216,17.686 1.303,17.289 1.514,16.955 L1.572,16.856 L1.321,16.802 L1.321,16.802 C1.004,16.729 0.715,16.621 0.483,16.459 L0.464,16.441 C0.185,16.225 0.011,15.936 -0.009,15.594 L-0.009,15.539 L-0.009,15.459 C0.030,14.945 0.589,14.260 1.196,13.493 L1.380,13.276 L1.408,13.231 C1.688,12.880 1.977,12.510 2.208,12.158 L2.247,12.132 C2.411,11.861 2.545,11.609 2.545,11.483 C2.584,11.248 2.594,11.014 2.584,10.815 C2.584,10.599 2.565,10.382 2.536,10.193 C2.517,10.004 2.478,9.824 2.440,9.661 C2.391,9.517 2.353,9.373 2.314,9.265 C2.247,9.031 2.247,8.336 2.458,7.497 C2.575,6.948 2.777,6.307 3.066,5.658 C4.011,3.567 5.591,2.160 7.499,1.259 C9.706,0.231 12.337,-0.102 14.930,-0.004 C17.706,0.096 20.164,0.908 22.158,2.341 C24.115,3.738 25.608,5.749 26.447,8.246 C27.373,10.959 27.035,13.394 26.004,15.603 C25.001,17.767 23.363,19.714 21.638,21.562 C21.378,21.832 21.252,21.995 21.195,22.192 C21.118,22.445 21.137,22.805 21.233,23.392 C21.407,24.645 21.696,25.925 22.052,27.188 C22.429,28.467 22.852,29.748 23.276,31.000 C23.402,31.397 23.151,31.830 22.727,31.948 C22.303,32.074 21.840,31.848 21.715,31.452 C21.291,30.198 20.857,28.900 20.501,27.584 C20.115,26.268 19.807,24.933 19.614,23.599 C19.489,22.788 19.489,22.283 19.614,21.832 L19.614,21.832 C19.739,21.327 20.019,20.985 20.414,20.552 C22.052,18.821 23.594,16.982 24.510,15.007 C25.397,13.106 25.676,11.032 24.896,8.706 C24.154,6.515 22.872,4.757 21.175,3.540 C19.440,2.304 17.301,1.611 14.853,1.511 C12.530,1.421 10.169,1.710 8.222,2.620 C6.661,3.360 5.350,4.523 4.579,6.254 C4.309,6.822 4.136,7.372 4.030,7.822 C3.904,8.399 3.847,8.760 3.885,8.832 C3.924,8.958 3.962,9.129 4.011,9.328 C4.078,9.517 4.116,9.752 4.155,9.986 C4.175,10.229 4.203,10.491 4.203,10.779 C4.213,11.050 4.203,11.347 4.175,11.645 C4.136,12.024 3.924,12.457 3.635,12.907 L3.596,12.961 C3.346,13.322 3.028,13.745 2.709,14.160 L2.671,14.188 L3.770,15.474 C3.452,15.871 1.880,15.143 1.726,15.342 L2.083,15.414 L2.112,15.414 C2.420,15.476 2.642,15.522 2.854,15.630 L2.903,15.648 C3.779,16.108 3.653,16.513 2.941,17.667 L2.921,17.722 C2.903,17.758 2.507,14.358 2.497,14.404 L6.391,15.474 C10.728,15.474 15.258,21.165 15.258,25.204 L15.258,30.722 C15.258,31.416 14.631,31.984 13.889,31.984 C13.157,31.984 12.530,31.416 12.530,30.722 L12.530,25.204 C12.530,22.544 9.388,17.640 6.545,17.640 L3.210,20.381 L3.210,20.381 C3.239,20.435 3.297,20.516 3.384,20.579 L3.403,20.606 C3.509,20.750 3.653,20.894 3.779,21.066 C4.396,21.914 4.183,22.383 3.924,22.950 C3.866,23.076 3.779,23.229 3.760,23.382 L3.760,23.382 C3.760,23.410 3.760,23.455 3.779,23.482 C3.827,23.563 3.934,23.662 4.136,23.779 C5.167,24.375 6.218,24.411 7.085,24.428 C9.205,24.464 10.699,24.492 11.123,28.657 C11.268,30.073 11.229,31.217 11.229,31.227 L11.229,31.227 Z" class="cls-1"/>
</svg>
